;FLAVOR:Marlin
;TIME:576
;Filament used: 0.253316m
;Layer height: 0.2
;MINX:103.8
;MINY:103.8
;MINZ:0.2
;MAXX:131.2
;MAXY:131.2
;MAXZ:1
;TARGET_MACHINE.NAME:Creality Ender-3
;Generated with Cura_SteamEngine 5.7.1
M140 S60
M105
M190 S60
M104 S200
M105
M109 S200
M82 ;absolute extrusion mode
; Ender 3 Custom Start G-code
G92 E0 ; Reset Extruder
G28 ; Home all axes
G1 Z2.0 F3000 ; Move Z Axis up little to prevent scratching of Heat Bed
G1 X0.1 Y20 Z0.3 F5000.0 ; Move to start position
G1 X0.1 Y200.0 Z0.3 F1500.0 E15 ; Draw the first line
G1 X0.4 Y200.0 Z0.3 F5000.0 ; Move to side a little
G1 X0.4 Y20 Z0.3 F1500.0 E30 ; Draw the second line
G92 E0 ; Reset Extruder
G1 Z2.0 F3000 ; Move Z Axis up little to prevent scratching of Heat Bed
G1 X5 Y20 Z0.3 F5000.0 ; Move over to prevent blob squish
G92 E0
G92 E0
G1 F600 E-2
;LAYER_COUNT:5
;LAYER:0
M107
;MESH:cardtech_logo.stl
G0 F6000 X114.951 Y116.424 Z0.2
;TYPE:WALL-INNER
G1 F600 E0
G1 F1156.6 X114.998 Y116.349 E0.00305
G1 F1132.1 X115.336 Y116.1 E0.01786
G1 F1098.4 X115.657 Y116.034 E0.02976
G1 X115.227 Y115.582 E0.05243
G1 X115.04 Y115.289 E0.06506
G1 X115.03 Y115.731 E0.08113
G1 F1124.1 X114.951 Y116.424 E0.10589
G0 F6000 X114.878 Y116.558
G1 F1209.1 X114.926 Y116.463 E0.10941
G1 F1194 X114.811 Y116.674 E0.11744
G1 F1203 X114.878 Y116.558 E0.12188
G0 F6000 X115.244 Y115.893
G0 X114.947 Y116.766
G0 X114.848 Y117.354
G0 X114.786 Y118.606
G0 X114.807 Y120.152
G0 X114.912 Y121.463
G0 X115.064 Y122.337
G0 X115.248 Y122.891
G0 X115.475 Y123.245
G0 X115.999 Y123.738
G0 X116.97 Y124.481
G0 X124.017 Y129.273
G0 X124.824 Y129.438
G1 F1200 X124.368 Y129.333 E0.13745
G1 X123.534 Y128.921 E0.16838
G1 X121.735 Y127.857 E0.2379
G1 X119.191 Y126.223 E0.33847
G1 X117.092 Y124.778 E0.42322
G1 X115.912 Y123.878 E0.47258
G1 X115.351 Y123.345 E0.49832
G1 X115.104 Y122.967 E0.51334
G1 X114.901 Y122.332 E0.53551
G1 X114.749 Y121.457 E0.56505
G1 X114.644 Y120.156 E0.60846
G1 X114.624 Y118.59 E0.66055
G1 X114.691 Y117.293 E0.70375
G1 X114.781 Y116.752 E0.72199
G1 X114.524 Y116.946 E0.7327
G1 X114.221 Y117.076 E0.74366
G1 X113.742 Y117.061 E0.7596
G1 X113.076 Y116.829 E0.78306
G1 X112.153 Y116.386 E0.81711
G1 X111.091 Y115.762 E0.85808
G1 X110.266 Y115.172 E0.89182
G1 X109.724 Y114.682 E0.91612
G1 X109.422 Y114.249 E0.93368
G1 X109.272 Y113.724 E0.95184
G1 X109.18 Y112.821 E0.98203
G1 X109.148 Y111.301 E1.03259
G1 X109.21 Y109.369 E1.09688
G1 X109.31 Y108.278 E1.13332
G1 X109.427 Y107.947 E1.145
G1 X109.518 Y107.81 E1.15047
G1 X109.721 Y107.632 E1.15945
G1 X109.921 Y107.531 E1.1669
G1 X110.281 Y107.476 E1.17901
G1 X110.683 Y107.625 E1.19327
G1 X112.352 Y108.565 E1.25698
G1 X113.917 Y109.533 E1.31819
G1 X114.513 Y109.979 E1.34295
G1 X114.578 Y108.385 E1.39601
G1 X114.722 Y106.829 E1.44798
G1 X114.826 Y106.293 E1.46614
G1 X114.978 Y105.963 E1.47823
G1 X115.2 Y105.74 E1.48869
G1 X115.528 Y105.592 E1.50066
G1 X115.673 Y105.581 E1.5055
G1 X116.139 Y105.665 E1.52125
G1 X117.128 Y106.194 E1.55855
G1 X118.664 Y107.155 E1.61881
G1 X119.756 Y107.93 E1.66335
G1 X120.338 Y108.423 E1.68872
G1 X120.731 Y108.869 E1.70849
G1 X120.887 Y109.284 E1.72324
G1 X121.011 Y110.229 E1.75494
G1 X121.152 Y112.451 E1.82899
G1 X121.224 Y115.021 E1.9145
G1 X121.2 Y116.671 E1.96939
G1 X121.121 Y117.376 E1.99298
G1 X121.006 Y117.732 E2.00542
G1 X120.905 Y117.904 E2.01206
G1 X120.706 Y118.09 E2.02112
G1 X120.378 Y118.236 E2.03306
G1 X120.016 Y118.243 E2.0451
G1 X121.051 Y118.86 E2.08518
G1 X122.954 Y120.094 E2.16061
G1 X124.2 Y121.005 E2.21195
G1 X124.893 Y121.61 E2.24255
G1 X125.233 Y122.001 E2.25978
G1 X125.426 Y122.38 E2.27393
G1 X125.593 Y123.228 E2.30268
G1 X125.756 Y124.684 E2.3514
G1 X125.848 Y126.458 E2.41049
G1 X125.844 Y127.83 E2.45612
G1 X125.758 Y128.553 E2.48034
G1 X125.637 Y128.913 E2.49297
G1 X125.536 Y129.059 E2.49887
G1 X125.246 Y129.325 E2.51196
G1 X124.824 Y129.438 E2.52649
G1 F600 E0.52649
G0 F6000 X124.017 Y129.273
G0 X121.637 Y128.009
G0 X121.637 Y130.596
G0 X109.795 Y130.796
G1 F600 E2.52649
G1 F1200 X125.191 Y130.796 E3.03857
G1 X125.525 Y130.773 E3.0497
G1 X125.815 Y130.741 E3.0594
G1 X126.205 Y130.672 E3.07258
G1 X126.488 Y130.604 E3.08226
G1 X126.955 Y130.466 E3.09845
G1 X127.352 Y130.301 E3.11275
G1 X127.804 Y130.078 E3.12952
G1 X128.291 Y129.773 E3.14863
G1 X128.716 Y129.45 E3.16638
G1 X128.953 Y129.242 E3.17687
G1 X129.233 Y128.962 E3.19004
G1 X129.507 Y128.647 E3.20393
G1 X129.688 Y128.413 E3.21377
G1 X129.915 Y128.073 E3.22737
G1 X130.056 Y127.833 E3.23662
G1 X130.298 Y127.349 E3.25462
G1 X130.464 Y126.953 E3.2689
G1 X130.651 Y126.297 E3.29159
G1 X130.742 Y125.818 E3.30781
G1 X130.777 Y125.496 E3.31858
G1 X130.796 Y125.205 E3.32828
G1 X130.796 Y109.802 E3.84059
G1 X130.778 Y109.499 E3.85068
G1 X130.708 Y108.989 E3.8678
G1 X130.646 Y108.685 E3.87812
G1 X130.575 Y108.402 E3.88783
G1 X130.414 Y107.928 E3.90448
G1 X130.296 Y107.644 E3.9147
G1 X130.064 Y107.171 E3.93223
G1 X129.923 Y106.936 E3.94134
G1 X129.745 Y106.667 E3.95207
G1 X129.514 Y106.359 E3.96488
G1 X129.176 Y105.974 E3.98192
G1 X128.948 Y105.753 E3.99248
G1 X128.727 Y105.558 E4.00228
G1 X128.324 Y105.241 E4.01933
G1 X127.832 Y104.938 E4.03855
G1 X127.349 Y104.698 E4.05649
G1 X126.901 Y104.509 E4.07266
G1 X126.895 Y104.514 E4.07292
G1 X126.291 Y104.342 E4.09381
G1 X125.814 Y104.255 E4.10994
G1 X125.512 Y104.223 E4.12004
G1 X125.095 Y104.2 E4.13393
G1 X109.802 Y104.204 E4.64258
G1 X109.481 Y104.223 E4.65327
G1 X109.184 Y104.254 E4.6632
G1 X108.702 Y104.345 E4.67952
G1 X108.043 Y104.532 E4.7023
G1 X107.644 Y104.699 E4.71669
G1 X107.196 Y104.918 E4.73327
G1 X106.761 Y105.19 E4.75034
G1 X106.354 Y105.487 E4.76709
G1 X106.041 Y105.757 E4.78084
G1 X105.834 Y105.964 E4.79058
G1 X105.492 Y106.35 E4.80773
G1 X105.259 Y106.655 E4.8205
G1 X105.084 Y106.923 E4.83114
G1 X104.878 Y107.28 E4.84485
G1 X104.703 Y107.633 E4.85796
G1 X104.584 Y107.921 E4.86832
G1 X104.421 Y108.417 E4.88569
G1 X104.323 Y108.795 E4.89867
G1 X104.254 Y109.186 E4.91188
G1 X104.219 Y109.5 E4.92239
G1 X104.2 Y109.898 E4.93564
G1 X104.2 Y125.105 E5.44143
G1 X104.219 Y125.489 E5.45422
G1 X104.289 Y126.013 E5.4718
G1 X104.345 Y126.297 E5.48143
G1 X104.416 Y126.569 E5.49078
G1 X104.587 Y127.082 E5.50876
G1 X104.697 Y127.348 E5.51834
G1 X104.872 Y127.715 E5.53186
G1 X105.074 Y128.062 E5.54521
G1 X105.246 Y128.32 E5.55553
G1 X105.545 Y128.716 E5.57203
G1 X105.754 Y128.953 E5.58254
G1 X106.034 Y129.233 E5.59571
G1 X106.344 Y129.502 E5.60936
G1 X106.663 Y129.746 E5.62272
G1 X107.193 Y130.079 E5.64354
G1 X107.643 Y130.3 E5.66021
G1 X108.117 Y130.494 E5.67725
G1 X108.675 Y130.643 E5.69646
G1 X108.985 Y130.707 E5.70698
G1 X109.515 Y130.778 E5.72477
G1 X109.795 Y130.796 E5.7341
G0 F6000 X109.783 Y131.196
;TYPE:WALL-OUTER
G1 F1200 X125.205 Y131.196 E6.24704
G1 X125.567 Y131.171 E6.25911
G1 X125.911 Y131.131 E6.27063
G1 X126.287 Y131.064 E6.28333
G1 X126.626 Y130.981 E6.29494
G1 X127.089 Y130.843 E6.31101
G1 X127.517 Y130.665 E6.32642
G1 X127.998 Y130.428 E6.34426
G1 X128.468 Y130.137 E6.36265
G1 X128.735 Y129.944 E6.3736
G1 X128.972 Y129.758 E6.38362
G1 X129.227 Y129.534 E6.39491
G1 X129.525 Y129.235 E6.40895
G1 X129.817 Y128.901 E6.42371
G1 X130.013 Y128.647 E6.43438
G1 X130.254 Y128.285 E6.44884
G1 X130.408 Y128.024 E6.45892
G1 X130.662 Y127.516 E6.47781
G1 X130.842 Y127.085 E6.49335
G1 X131.041 Y126.389 E6.51742
G1 X131.138 Y125.878 E6.53472
G1 X131.176 Y125.53 E6.54637
G1 X131.196 Y125.217 E6.5568
G1 X131.196 Y109.79 E7.0699
G1 X131.176 Y109.46 E7.0809
G1 X131.102 Y108.922 E7.09896
G1 X131.036 Y108.597 E7.10999
G1 X130.959 Y108.289 E7.12055
G1 X130.788 Y107.787 E7.13819
G1 X130.661 Y107.479 E7.14927
G1 X130.416 Y106.98 E7.16776
G1 X130.262 Y106.723 E7.17773
G1 X130.072 Y106.436 E7.18917
G1 X129.824 Y106.107 E7.20288
G1 X129.466 Y105.698 E7.22095
G1 X129.22 Y105.459 E7.23236
G1 X128.983 Y105.25 E7.24287
G1 X128.553 Y104.913 E7.26104
G1 X128.026 Y104.588 E7.28164
G1 X127.516 Y104.334 E7.30059
G1 X127.014 Y104.122 E7.31871
G1 X127.005 Y104.129 E7.31909
G1 X126.382 Y103.952 E7.34063
G1 X125.871 Y103.859 E7.35791
G1 X125.544 Y103.824 E7.36884
G1 X125.106 Y103.8 E7.38343
G1 X109.79 Y103.804 E7.89285
G1 X109.449 Y103.824 E7.90421
G1 X109.126 Y103.858 E7.91501
G1 X108.61 Y103.955 E7.93247
G1 X107.911 Y104.154 E7.95665
G1 X107.479 Y104.335 E7.97222
G1 X107.002 Y104.568 E7.98988
G1 X106.537 Y104.858 E8.00811
G1 X106.105 Y105.173 E8.02589
G1 X105.769 Y105.463 E8.04065
G1 X105.542 Y105.69 E8.05133
G1 X105.183 Y106.096 E8.06936
G1 X104.932 Y106.424 E8.08309
G1 X104.743 Y106.713 E8.09458
G1 X104.525 Y107.091 E8.10909
G1 X104.339 Y107.467 E8.12304
G1 X104.208 Y107.782 E8.13439
G1 X104.037 Y108.305 E8.15269
G1 X103.932 Y108.711 E8.16664
G1 X103.858 Y109.129 E8.18076
G1 X103.82 Y109.468 E8.1921
G1 X103.8 Y109.889 E8.20612
G1 X103.8 Y125.115 E8.71254
G1 X103.82 Y125.525 E8.72619
G1 X103.894 Y126.079 E8.74478
G1 X103.955 Y126.387 E8.75523
G1 X104.032 Y126.683 E8.7654
G1 X104.212 Y127.222 E8.7843
G1 X104.331 Y127.51 E8.79466
G1 X104.518 Y127.902 E8.80911
G1 X104.734 Y128.274 E8.82342
G1 X104.92 Y128.552 E8.83454
G1 X105.235 Y128.969 E8.85192
G1 X105.462 Y129.227 E8.86335
G1 X105.761 Y129.525 E8.87739
G1 X106.091 Y129.812 E8.89194
G1 X106.435 Y130.075 E8.90634
G1 X106.998 Y130.429 E8.92846
G1 X107.479 Y130.665 E8.94628
G1 X107.989 Y130.874 E8.96461
G1 X108.583 Y131.033 E8.98507
G1 X108.918 Y131.102 E8.99644
G1 X109.476 Y131.176 E9.01516
G1 X109.783 Y131.196 E9.0254
G1 F600 E7.0254
G0 F6000 X109.784 Y130.694
G0 X114.411 Y130.596
G0 X115.802 Y124.022
G0 X114.152 Y116.673
G1 F600 E9.0254
G1 F1200 X113.813 Y116.663 E9.03668
G1 X113.249 Y116.469 E9.05651
G1 X112.334 Y116.029 E9.09028
G1 X111.279 Y115.407 E9.13102
G1 X110.48 Y114.832 E9.16376
G1 X110.04 Y114.428 E9.18363
G1 X109.789 Y114.077 E9.19798
G1 X109.666 Y113.655 E9.2126
G1 X109.58 Y112.813 E9.24075
G1 X109.548 Y111.313 E9.29065
G1 X109.608 Y109.405 E9.35414
G1 X109.702 Y108.379 E9.38841
G1 X109.797 Y108.092 E9.39846
G1 X110.017 Y107.92 E9.40775
G1 X110.203 Y107.888 E9.41403
G1 X110.487 Y107.973 E9.42389
G1 X112.142 Y108.905 E9.48706
G1 X113.706 Y109.873 E9.54824
G1 X114.27 Y110.304 E9.57185
G1 F1167.9 X114.448 Y110.539 E9.58192
G1 F1191.1 X114.528 Y110.905 E9.59448
G1 F1333.3 X114.597 Y111.86 E9.62314
G1 F1352.1 X114.646 Y113.691 E9.67721
G1 F1243.5 X114.661 Y113.699 E9.67775
G1 F1200 X114.611 Y115.737 E9.74556
G1 X114.546 Y116.336 E9.7656
G1 X114.424 Y116.531 E9.77325
G1 X114.152 Y116.673 E9.78345
G1 F600 E7.78345
G0 F6000 X114.411 Y117.105
G0 X115.127 Y116.441
G0 X115.55 Y116.185
G0 X116.094 Y116.307
G0 X116.962 Y116.704
G0 X118.702 Y117.648
G0 X120.109 Y118.108
G0 X120.638 Y118.017
G0 X120.441 Y117.79
G1 F600 E9.78345
G1 F1200 X120.16 Y117.859 E9.79308
G1 F1050.3 X119.548 Y117.771 E9.81657
G1 F1014.8 X118.549 Y117.327 E9.85957
G1 F1142.9 X117.49 Y116.794 E9.90097
G1 F1124.1 X116.623 Y116.292 E9.93654
G1 F1132.1 X116.336 Y116.043 E9.94994
G1 F1200 X115.967 Y115.754 E9.96553
G1 X115.551 Y115.313 E9.98569
G1 X115.307 Y114.932 E10.00074
G1 X115.134 Y114.442 E10.01802
G1 X115.002 Y113.674 E10.04394
G1 F1243.5 X115.015 Y113.668 E10.0444
G1 F1359.8 X114.941 Y112.382 E10.08221
G1 F1428.6 X114.935 Y111.832 E10.09758
G1 F1340.8 X114.908 Y110.92 E10.12474
G1 F1197 X114.879 Y110.527 E10.13788
G1 F1162.2 X114.909 Y110.098 E10.15264
G1 F1200 X114.976 Y108.421 E10.20847
G1 X115.112 Y106.925 E10.25843
G1 X115.219 Y106.369 E10.27726
G1 X115.4 Y106.086 E10.28843
G1 X115.614 Y105.977 E10.29642
G1 X116.009 Y106.049 E10.30978
G1 X116.95 Y106.554 E10.3453
G1 X118.432 Y107.481 E10.40344
G1 X119.538 Y108.267 E10.44856
G1 X120.078 Y108.727 E10.47216
G1 X120.382 Y109.078 E10.4876
G1 X120.496 Y109.369 E10.498
G1 X120.612 Y110.255 E10.52772
G1 X120.752 Y112.462 E10.60127
G1 X120.824 Y115.015 E10.68622
G1 X120.799 Y116.659 E10.7409
G1 X120.712 Y117.379 E10.76502
G1 X120.598 Y117.648 E10.77474
G1 X120.441 Y117.79 E10.78178
G1 F600 E8.78178
G0 F6000 X120.638 Y118.017
G0 X120.549 Y118.35
G0 X124.75 Y121.691
G0 X125.104 Y122.094
G0 X125.271 Y122.436
G0 X125.435 Y123.234
G0 X125.595 Y124.691
G0 X125.689 Y126.462
G0 X125.683 Y127.835
G0 X125.605 Y128.524
G0 X125.468 Y128.904
G0 X125.238 Y129.129
G0 X124.753 Y129.318
G0 X124.82 Y129.027
G1 F600 E10.78178
G1 F1200 X124.483 Y128.944 E10.79333
G1 X123.738 Y128.577 E10.82095
G1 X121.951 Y127.521 E10.88999
G1 X119.418 Y125.893 E10.99013
G1 X117.334 Y124.46 E11.07425
G1 X116.154 Y123.56 E11.12361
G1 X115.647 Y123.072 E11.14702
G1 X115.461 Y122.773 E11.15873
G1 X115.302 Y122.291 E11.17561
G1 X115.148 Y121.425 E11.20487
G1 X115.044 Y120.135 E11.24791
G1 X115.024 Y118.61 E11.29864
G1 X115.086 Y117.359 E11.3403
G1 X115.172 Y116.853 E11.35737
G1 X115.302 Y116.619 E11.36627
G1 X115.53 Y116.47 E11.37533
G1 X115.639 Y116.448 E11.37903
G1 X115.998 Y116.528 E11.39126
G1 F1132.1 X116.414 Y116.687 E11.40696
G1 F1108.5 X116.86 Y116.908 E11.42488
G1 F1162.2 X117.32 Y117.164 E11.44296
G1 F1121.5 X118.587 Y117.831 E11.49392
G1 F997.9 X119.321 Y118.229 E11.52731
G1 F1050.3 X119.785 Y118.571 E11.54922
G1 F1200 X120.833 Y119.196 E11.5898
G1 X122.718 Y120.418 E11.66452
G1 X123.939 Y121.308 E11.71477
G1 X124.571 Y121.852 E11.74251
G1 X124.911 Y122.249 E11.75989
G1 X125.049 Y122.536 E11.77049
G1 X125.193 Y123.256 E11.79491
G1 X125.356 Y124.705 E11.8434
G1 X125.448 Y126.481 E11.90255
G1 X125.442 Y127.843 E11.94785
G1 X125.368 Y128.467 E11.96875
G1 X125.266 Y128.752 E11.97882
G1 X125.068 Y128.954 E11.98823
G1 X124.82 Y129.027 E11.99683
G1 F600 E9.99683
G0 F6000 X124.753 Y129.318
G0 X124.404 Y129.515
G0 X124.404 Y130.596
G0 X124.071 Y130.436
;TYPE:SKIN
G1 F600 E11.99683
G1 F1200 X109.816 Y130.436 E12.47095
G1 X109.545 Y130.416 E12.47999
G1 X109.046 Y130.35 E12.49673
G1 X108.747 Y130.289 E12.50688
G1 X108.245 Y130.154 E12.52417
G1 X107.782 Y129.965 E12.5408
G1 X107.374 Y129.765 E12.55592
G1 X106.862 Y129.443 E12.57603
G1 X106.579 Y129.228 E12.58785
G1 X106.273 Y128.961 E12.60136
G1 X106.014 Y128.702 E12.61354
G1 X105.83 Y128.495 E12.62276
G1 X105.579 Y128.175 E12.63628
G1 X105.379 Y127.87 E12.64841
G1 X105.189 Y127.546 E12.66091
G1 X105.028 Y127.207 E12.67339
G1 X104.92 Y126.942 E12.68291
G1 X104.756 Y126.455 E12.7
G1 X104.663 Y126.091 E12.71249
G1 X104.576 Y125.442 E12.73427
G1 X104.56 Y125.103 E12.74556
G1 X104.56 Y109.912 E13.25081
G1 X104.576 Y109.516 E13.264
G1 X104.611 Y109.226 E13.27371
G1 X104.672 Y108.884 E13.28527
G1 X104.764 Y108.528 E13.2975
G1 X104.924 Y108.034 E13.31477
G1 X105.026 Y107.792 E13.3235
G1 X105.201 Y107.438 E13.33664
G1 X105.383 Y107.117 E13.34891
G1 X105.544 Y106.873 E13.35863
G1 X105.763 Y106.587 E13.37061
G1 X106.087 Y106.217 E13.38697
G1 X106.292 Y106.012 E13.39661
G1 X106.588 Y105.762 E13.4095
G1 X106.953 Y105.494 E13.42456
G1 X107.382 Y105.228 E13.44135
G1 X107.784 Y105.031 E13.45624
G1 X108.155 Y104.874 E13.46964
G1 X108.791 Y104.695 E13.49161
G1 X109.238 Y104.607 E13.50677
G1 X109.503 Y104.58 E13.51563
G1 X109.79 Y104.565 E13.52518
G1 X114.953 Y104.563 E13.69691
G1 F1023.5 X115.411 Y104.631 E13.71496
G1 F898.9 X115.683 Y104.626 E13.72704
G1 F866.4 X116.295 Y104.652 E13.75526
G1 F895.5 X116.481 Y104.608 E13.76378
G1 F1073.8 X117.674 Y104.562 E13.80815
G1 F1200 X125.075 Y104.561 E14.05431
G1 X125.488 Y104.58 E14.06806
G1 X125.762 Y104.61 E14.07723
G1 X126.198 Y104.691 E14.09198
G1 X126.787 Y104.858 E14.11234
G1 X127.206 Y105.027 E14.12737
G1 X127.658 Y105.251 E14.14415
G1 X128.109 Y105.533 E14.16184
G1 X128.502 Y105.837 E14.17836
G1 X128.923 Y106.232 E14.19756
G1 X129.24 Y106.595 E14.21359
G1 X129.444 Y106.864 E14.22482
G1 X129.614 Y107.122 E14.2351
G1 X129.751 Y107.356 E14.24412
