;FLAVOR:Marlin
;TIME:2903
;Filament used: 1.2673m
;Layer height: 0.2
;MINX:86.596
;MINY:83.652
;MINZ:0.2
;MAXX:174.836
;MAXY:141.516
;MAXZ:1
;TARGET_MACHINE.NAME:Creality Ender-3
;Generated with Cura_SteamEngine 5.7.1
M140 S60
M105
M190 S60
M104 S200
M105
M109 S200
M82 ;absolute extrusion mode
; Ender 3 Custom Start G-code
G92 E0 ; Reset Extruder
G28 ; Home all axes
G1 Z2.0 F3000 ; Move Z Axis up little to prevent scratching of Heat Bed
G1 X0.1 Y20 Z0.3 F5000.0 ; Move to start position
G1 X0.1 Y200.0 Z0.3 F1500.0 E15 ; Draw the first line
G1 X0.4 Y200.0 Z0.3 F5000.0 ; Move to side a little
G1 X0.4 Y20 Z0.3 F1500.0 E30 ; Draw the second line
G92 E0 ; Reset Extruder
G1 Z2.0 F3000 ; Move Z Axis up little to prevent scratching of Heat Bed
G1 X5 Y20 Z0.3 F5000.0 ; Move over to prevent blob squish
G92 E0
G92 E0
G1 F600 E-2
;LAYER_COUNT:5
;LAYER:0
M107
;MESH:cardtech_logo.stl(4)
G0 F6000 X98.59 Y96.279 Z0.2
;TYPE:WALL-INNER
G1 F600 E0
G1 F1137.4 X98.679 Y96.142 E0.00573
G1 F1113.7 X98.976 Y95.952 E0.01837
G1 F1098.4 X99.297 Y95.886 E0.03028
G1 X98.864 Y95.432 E0.05307
G1 X98.681 Y95.14 E0.06559
G1 X98.667 Y95.631 E0.08344
G1 F1121.5 X98.59 Y96.279 E0.10667
G0 F6000 X98.568 Y96.312
G1 F1188.1 X98.451 Y96.526 E0.11486
G0 F6000 X98.227 Y97.113
G0 X98.553 Y101.316
G0 X98.705 Y102.19
G0 X98.888 Y102.744
G0 X99.115 Y103.098
G0 X99.639 Y103.591
G0 X100.838 Y104.509
G0 X102.027 Y105.328
G0 X108.322 Y109.365
G0 X108.882 Y109.178
G1 F1200 X108.56 Y109.268 E0.12598
G1 X108.312 Y109.259 E0.13423
G1 X108.004 Y109.183 E0.14479
G1 X107.174 Y108.773 E0.17558
G1 X105.375 Y107.709 E0.24509
G1 X102.831 Y106.075 E0.34566
G1 X100.732 Y104.63 E0.43041
G1 X99.552 Y103.73 E0.47977
G1 X98.986 Y103.195 E0.50568
G1 X98.743 Y102.814 E0.52071
G1 X98.541 Y102.184 E0.54271
G1 X98.389 Y101.309 E0.57225
G1 X98.284 Y100.009 E0.61563
G1 X98.264 Y98.446 E0.66762
G1 X98.324 Y97.214 E0.70864
G1 F1197 X98.428 Y96.559 E0.73076
G1 X98.176 Y96.793 E0.74222
G1 F1200 X97.865 Y96.932 E0.75355
G1 X97.384 Y96.917 E0.76956
G1 X96.712 Y96.681 E0.79325
G1 X95.8 Y96.244 E0.82688
G1 X94.73 Y95.613 E0.8682
G1 X93.851 Y94.984 E0.90415
G1 X93.362 Y94.53 E0.92634
G1 X93.062 Y94.101 E0.94376
G1 X92.912 Y93.576 E0.96192
G1 X92.82 Y92.673 E0.9921
G1 X92.788 Y91.153 E1.04267
G1 X92.85 Y89.223 E1.1069
G1 X92.951 Y88.169 E1.14211
G1 X93.051 Y87.839 E1.15358
G1 X93.168 Y87.655 E1.16083
G1 X93.458 Y87.408 E1.1735
G1 X93.917 Y87.327 E1.18901
G1 X94.323 Y87.477 E1.2034
G1 X95.992 Y88.417 E1.26711
G1 X97.601 Y89.415 E1.33009
G1 X98.155 Y89.83 E1.35311
G1 X98.218 Y88.239 E1.40607
G1 X98.36 Y86.678 E1.4582
G1 X98.472 Y86.138 E1.47654
G1 X98.625 Y85.813 E1.48849
G1 X98.832 Y85.602 E1.49832
G1 X99.172 Y85.444 E1.51079
G1 X99.317 Y85.433 E1.51563
G1 X99.784 Y85.518 E1.53142
G1 X100.766 Y86.047 E1.56852
G1 X102.274 Y86.986 E1.6276
G1 X103.431 Y87.812 E1.67488
G1 X104.025 Y88.329 E1.70107
G1 X104.361 Y88.715 E1.7181
G1 X104.522 Y89.104 E1.7321
G1 X104.651 Y90.081 E1.76488
G1 X104.792 Y92.303 E1.83893
G1 X104.864 Y94.873 E1.92444
G1 X104.84 Y96.526 E1.97942
G1 X104.761 Y97.228 E2.00292
G1 X104.647 Y97.585 E2.01539
G1 X104.546 Y97.759 E2.02208
G1 X104.348 Y97.943 E2.03107
G1 X104.036 Y98.087 E2.0425
G1 X103.66 Y98.098 E2.05501
G1 X104.691 Y98.712 E2.09492
G1 X106.593 Y99.95 E2.1704
G1 X107.801 Y100.826 E2.22003
G1 X108.472 Y101.401 E2.24942
G1 X108.874 Y101.853 E2.26954
G1 X109.064 Y102.234 E2.2837
G1 X109.237 Y103.086 E2.31262
G1 X109.396 Y104.54 E2.36127
G1 X109.489 Y106.334 E2.42101
G1 X109.481 Y107.731 E2.46748
G1 X109.398 Y108.425 E2.49073
G1 X109.242 Y108.857 E2.506
G1 X108.882 Y109.178 E2.52204
G0 F6000 X108.322 Y109.365
G0 X108.843 Y109.394
G0 X108.905 Y110.444
G0 X109.173 Y110.628
G1 F1200 X109.453 Y110.594 E2.53143
G1 X109.959 Y110.507 E2.5485
G1 X110.41 Y110.373 E2.56415
G1 X110.819 Y110.229 E2.57857
G1 X110.827 Y110.235 E2.57891
G1 X111.383 Y109.958 E2.59957
G1 X111.612 Y109.831 E2.60828
G1 X112.062 Y109.532 E2.62625
G1 X112.424 Y109.252 E2.64147
G1 X112.746 Y108.944 E2.65629
G1 X113.006 Y108.67 E2.66885
G1 X113.328 Y108.263 E2.68611
G1 X113.507 Y108.002 E2.69664
G1 X113.705 Y107.676 E2.70932
G1 X113.853 Y107.395 E2.71989
G1 X113.981 Y107.113 E2.73019
G1 X114.116 Y106.756 E2.74288
G1 X114.249 Y106.329 E2.75776
G1 X114.307 Y106.084 E2.76613
G1 X114.396 Y105.553 E2.78404
G1 X114.436 Y105.075 E2.79999
G1 X114.436 Y89.641 E3.31333
G1 X114.396 Y89.158 E3.32945
G1 X114.311 Y88.639 E3.34694
G1 X114.244 Y88.362 E3.35642
G1 X114.12 Y87.952 E3.37067
G1 X113.979 Y87.586 E3.38371
G1 X113.853 Y87.313 E3.39371
G1 X113.715 Y87.048 E3.40365
G1 X113.553 Y86.775 E3.41421
G1 X113.277 Y86.37 E3.43051
G1 X113.023 Y86.055 E3.44397
G1 X112.745 Y85.759 E3.45747
G1 X112.367 Y85.41 E3.47459
G1 X112.052 Y85.164 E3.48788
G1 X111.79 Y84.983 E3.49847
G1 X111.355 Y84.729 E3.51522
G1 X110.995 Y84.551 E3.52858
G1 X110.593 Y84.384 E3.54306
G1 X110.042 Y84.227 E3.56212
G1 X109.66 Y84.144 E3.57512
G1 X109.136 Y84.074 E3.5927
G1 X108.735 Y84.053 E3.60606
G1 X93.442 Y84.056 E4.1147
G1 X93.125 Y84.075 E4.12527
G1 X92.825 Y84.11 E4.13531
G1 X92.34 Y84.198 E4.15171
G1 X91.864 Y84.333 E4.16816
G1 X91.454 Y84.468 E4.18252
G1 X90.925 Y84.727 E4.20211
G1 X90.571 Y84.928 E4.21565
G1 X90.315 Y85.099 E4.22589
G1 X89.997 Y85.336 E4.23908
G1 X89.759 Y85.541 E4.24953
G1 X89.546 Y85.744 E4.25931
G1 X89.193 Y86.119 E4.27644
G1 X88.895 Y86.518 E4.29301
G1 X88.724 Y86.775 E4.30327
G1 X88.435 Y87.287 E4.32283
G1 X88.188 Y87.861 E4.34361
G1 X88.035 Y88.353 E4.36075
G1 X87.964 Y88.645 E4.37074
G1 X87.877 Y89.12 E4.38681
G1 X87.841 Y89.758 E4.40806
G1 X87.84 Y104.934 E4.91281
G1 X87.87 Y105.439 E4.92964
G1 X87.913 Y105.767 E4.94064
G1 X87.989 Y106.16 E4.95396
G1 X88.091 Y106.537 E4.96695
G1 X88.22 Y106.918 E4.98033
G1 X88.462 Y107.471 E5.0004
G1 X88.713 Y107.916 E5.0174
G1 X89.001 Y108.332 E5.03422
G1 X89.316 Y108.722 E5.0509
G1 X89.687 Y109.093 E5.06835
G1 X89.986 Y109.356 E5.08159
G1 X90.309 Y109.604 E5.09514
G1 X90.821 Y109.917 E5.1151
G1 X91.107 Y110.068 E5.12585
G1 X91.461 Y110.227 E5.13876
G1 X91.844 Y110.364 E5.15229
G1 X92.325 Y110.5 E5.16891
G1 X92.623 Y110.559 E5.17902
G1 X93.159 Y110.63 E5.197
G1 X93.436 Y110.648 E5.20623
G1 X108.835 Y110.648 E5.71841
G1 X109.173 Y110.628 E5.72967
G0 F6000 X109.22 Y111.025
;TYPE:WALL-OUTER
G1 F1200 X109.511 Y110.99 E5.73942
G1 X110.05 Y110.897 E5.75761
G1 X110.534 Y110.753 E5.7744
G1 X110.95 Y110.607 E5.78907
G1 X110.962 Y110.615 E5.78955
G1 X111.577 Y110.308 E5.81241
G1 X111.82 Y110.173 E5.82166
G1 X112.295 Y109.857 E5.84063
G1 X112.685 Y109.556 E5.85702
G1 X113.03 Y109.226 E5.8729
G1 X113.308 Y108.932 E5.88635
G1 X113.65 Y108.501 E5.90465
G1 X113.843 Y108.219 E5.91602
G1 X114.053 Y107.873 E5.92948
G1 X114.212 Y107.571 E5.94083
G1 X114.351 Y107.267 E5.95195
G1 X114.494 Y106.886 E5.96549
G1 X114.635 Y106.435 E5.9812
G1 X114.699 Y106.164 E5.99046
G1 X114.793 Y105.603 E6.00938
G1 X114.836 Y105.091 E6.02647
G1 X114.836 Y89.625 E6.54087
G1 X114.793 Y89.109 E6.55809
G1 X114.703 Y88.56 E6.5766
G1 X114.63 Y88.257 E6.58696
G1 X114.498 Y87.822 E6.60208
G1 X114.347 Y87.43 E6.61606
G1 X114.212 Y87.137 E6.62679
G1 X114.065 Y86.854 E6.63739
G1 X113.891 Y86.56 E6.64875
G1 X113.599 Y86.132 E6.66599
G1 X113.325 Y85.792 E6.68051
G1 X113.027 Y85.475 E6.69498
G1 X112.626 Y85.105 E6.71313
G1 X112.289 Y84.842 E6.72735
G1 X112.004 Y84.645 E6.73887
G1 X111.545 Y84.377 E6.75655
G1 X111.161 Y84.187 E6.7708
G1 X110.725 Y84.006 E6.7865
G1 X110.139 Y83.839 E6.80677
G1 X109.729 Y83.75 E6.82072
G1 X109.173 Y83.676 E6.83938
G1 X108.746 Y83.653 E6.8536
G1 X93.43 Y83.656 E7.36301
G1 X93.09 Y83.676 E7.37434
G1 X92.766 Y83.714 E7.38519
G1 X92.25 Y83.808 E7.40263
G1 X91.744 Y83.951 E7.42012
G1 X91.329 Y84.094 E7.43472
G1 X91.321 Y84.088 E7.43505
G1 X90.738 Y84.373 E7.45664
G1 X90.361 Y84.587 E7.47106
G1 X90.084 Y84.772 E7.48214
G1 X89.746 Y85.024 E7.49616
G1 X89.491 Y85.245 E7.50738
G1 X89.262 Y85.462 E7.51787
G1 X88.886 Y85.861 E7.53611
G1 X88.568 Y86.288 E7.55382
G1 X88.383 Y86.565 E7.5649
G1 X88.076 Y87.109 E7.58567
G1 X87.812 Y87.722 E7.60787
G1 X87.649 Y88.246 E7.62612
G1 X87.572 Y88.562 E7.63694
G1 X87.479 Y89.072 E7.65418
G1 X87.441 Y89.746 E7.67664
G1 X87.44 Y104.946 E8.18219
G1 X87.472 Y105.477 E8.19988
G1 X87.518 Y105.831 E8.21176
G1 X87.599 Y106.25 E8.22595
G1 X87.708 Y106.653 E8.23984
G1 X87.847 Y107.063 E8.25423
G1 X88.104 Y107.65 E8.27555
G1 X88.374 Y108.129 E8.29384
G1 X88.681 Y108.572 E8.31176
G1 X89.018 Y108.99 E8.32962
G1 X89.413 Y109.385 E8.3482
G1 X89.732 Y109.665 E8.36232
G1 X90.082 Y109.934 E8.377
G1 X90.623 Y110.265 E8.39809
G1 X90.932 Y110.428 E8.40971
G1 X91.311 Y110.598 E8.42353
G1 X91.722 Y110.745 E8.43805
G1 X92.231 Y110.889 E8.45564
G1 X92.557 Y110.954 E8.4667
G1 X93.12 Y111.028 E8.48558
G1 X93.423 Y111.048 E8.49568
G1 X108.846 Y111.048 E9.00865
G1 X109.22 Y111.025 E9.02112
G1 F600 E7.02112
G0 F6000 X109.187 Y110.727
G0 X108.322 Y110.448
G0 X108.383 Y109.463
G0 X108.707 Y108.806
G1 F600 E9.02112
G1 F1200 X108.458 Y108.884 E9.0298
G1 X108.123 Y108.796 E9.04132
G1 X107.378 Y108.429 E9.06894
G1 X105.591 Y107.373 E9.13798
G1 X103.058 Y105.745 E9.23812
G1 X100.974 Y104.312 E9.32224
G1 X99.794 Y103.412 E9.3716
G1 X99.296 Y102.943 E9.39436
G1 X99.101 Y102.624 E9.40679
G1 X98.942 Y102.143 E9.42364
G1 X98.788 Y101.277 E9.4529
G1 X98.684 Y99.987 E9.49594
G1 X98.664 Y98.466 E9.54653
G1 X98.726 Y97.211 E9.58833
G1 X98.812 Y96.705 E9.6054
G1 X98.943 Y96.474 E9.61423
G1 X99.17 Y96.322 E9.62332
G1 X99.279 Y96.3 E9.62701
G1 X99.638 Y96.38 E9.63925
G1 F1132.1 X100.054 Y96.539 E9.65495
G1 F1108.5 X100.5 Y96.76 E9.67287
G1 F1162.2 X100.96 Y97.016 E9.69095
G1 F1124.1 X102.235 Y97.687 E9.7421
G1 F997.9 X102.962 Y98.082 E9.7752
G1 F1050.3 X103.427 Y98.424 E9.79713
G1 F1200 X104.473 Y99.048 E9.83764
G1 X106.358 Y100.274 E9.91243
G1 X107.579 Y101.16 E9.96261
G1 X108.211 Y101.704 E9.99034
G1 X108.551 Y102.102 E10.00775
G1 X108.688 Y102.391 E10.01839
G1 X108.839 Y103.13 E10.04348
G1 X108.996 Y104.561 E10.09136
G1 X109.089 Y106.333 E10.15037
G1 X109.083 Y107.687 E10.19541
G1 X109.014 Y108.306 E10.21612
G1 X108.9 Y108.626 E10.22742
G1 X108.707 Y108.806 E10.2362
G1 F600 E8.2362
G0 F6000 X108.322 Y109.365
G0 X108.823 Y109.035
G0 X109.108 Y108.757
G0 X109.246 Y108.378
G0 X109.323 Y107.688
G0 X109.33 Y106.315
G0 X109.235 Y104.544
G0 X109.076 Y103.087
G0 X108.91 Y102.288
G0 X108.744 Y101.947
G0 X108.39 Y101.544
G0 X104.502 Y98.482
G0 X104.084 Y97.643
G1 F600 E10.2362
G1 F1121.5 X103.778 Y97.718 E10.24741
G1 F989.7 X103.189 Y97.623 E10.27147
G1 F1014.8 X102.208 Y97.19 E10.31365
G1 F1142.9 X101.13 Y96.646 E10.35582
G1 F1124.1 X100.263 Y96.144 E10.39139
G1 F1132.1 X99.976 Y95.895 E10.40478
G1 F1200 X99.63 Y95.627 E10.41934
G1 X99.187 Y95.16 E10.44075
G1 X98.931 Y94.746 E10.45694
G1 X98.775 Y94.291 E10.47294
G1 F1243.5 X98.655 Y93.524 E10.49785
G1 F1359.8 X98.582 Y92.233 E10.53581
G1 F1432.8 X98.576 Y91.666 E10.5516
G1 F1329.6 X98.547 Y90.714 E10.58019
G1 F1182.3 X98.522 Y90.38 E10.5915
G1 F1159.4 X98.552 Y89.948 E10.60641
G1 F1200 X98.616 Y88.274 E10.66212
G1 X98.748 Y86.782 E10.71194
G1 X98.864 Y86.219 E10.73106
G1 X99.04 Y85.944 E10.74192
G1 X99.258 Y85.829 E10.75012
G1 X99.652 Y85.901 E10.76344
G1 X100.576 Y86.399 E10.79835
G1 X102.072 Y87.333 E10.85701
G1 X103.171 Y88.116 E10.90189
G1 X103.703 Y88.572 E10.9252
G1 X104.018 Y88.93 E10.94106
G1 X104.139 Y89.241 E10.95216
G1 X104.252 Y90.107 E10.9812
G1 X104.392 Y92.314 E11.05476
G1 X104.464 Y94.867 E11.1397
G1 X104.439 Y96.515 E11.19452
G1 X104.363 Y97.183 E11.21688
G1 X104.258 Y97.486 E11.22755
G1 X104.084 Y97.643 E11.23534
G1 F600 E9.23534
G0 F6000 X104.502 Y98.482
G0 X102.342 Y97.501
G0 X100.602 Y96.557
G0 X99.734 Y96.16
G0 X99.19 Y96.038
G0 X97.577 Y97.024
G0 X97.794 Y96.529
G1 F600 E11.23534
G1 F1200 X97.457 Y96.519 E11.24656
G1 X96.885 Y96.321 E11.26669
G1 X95.97 Y95.881 E11.30046
G1 X94.934 Y95.269 E11.34048
G1 X94.123 Y94.691 E11.3736
G1 X93.679 Y94.279 E11.39375
G1 X93.429 Y93.929 E11.40805
G1 X93.306 Y93.507 E11.42267
G1 X93.22 Y92.665 E11.45082
G1 X93.188 Y91.165 E11.50073
G1 X93.248 Y89.261 E11.56408
G1 X93.346 Y88.232 E11.59846
G1 X93.435 Y87.946 E11.60843
G1 X93.674 Y87.768 E11.61834
G1 X93.843 Y87.74 E11.62404
G1 X94.127 Y87.825 E11.6339
G1 X95.782 Y88.757 E11.69707
G1 X97.361 Y89.735 E11.75884
G1 X97.873 Y90.119 E11.78013
G1 F1182.3 X98.082 Y90.361 E11.79093
G1 F1206 X98.169 Y90.765 E11.8046
G1 F1329.6 X98.24 Y91.683 E11.83224
G1 F1352.1 X98.287 Y93.555 E11.88752
G1 F1243.5 X98.283 Y94.327 E11.91229
G1 F1200 X98.251 Y95.589 E11.95428
G1 X98.187 Y96.187 E11.97429
G1 X98.064 Y96.383 E11.98198
G1 X97.794 Y96.529 E11.99219
G1 F600 E9.99219
G0 F6000 X97.577 Y97.024
G0 X98.154 Y97.003
G0 X98.553 Y101.316
G0 X98.705 Y102.19
G0 X98.888 Y102.744
G0 X99.115 Y103.098
G0 X99.639 Y103.591
G0 X100.838 Y104.509
G0 X102.935 Y105.953
G0 X105.469 Y107.579
G0 X107.272 Y108.645
G0 X108.063 Y109.034
G0 X108.463 Y109.125
G0 X108.823 Y109.035
G0 X109.153 Y109.202
G0 X109.424 Y110.396
G0 X109.882 Y110.153
;TYPE:SKIN
G1 F600 E11.99219
G1 F1118.9 X109.438 Y110.201 E12.00812
G1 F919.5 X109.145 Y110.174 E12.02089
G1 F843.6 X108.819 Y110.212 E12.03642
G1 F895.5 X108.545 Y110.229 E12.04866
G1 F923.1 X108.329 Y110.227 E12.058
G1 F1041.2 X107.802 Y110.287 E12.07833
G1 F1200 X93.454 Y110.288 E12.55554
G1 X93.196 Y110.272 E12.56414
G1 X92.669 Y110.198 E12.58184
G1 X92.41 Y110.149 E12.59061
G1 X91.942 Y110.017 E12.60678
G1 X91.603 Y109.894 E12.61878
G1 X91.257 Y109.74 E12.63137
G1 X91 Y109.602 E12.64108
G1 X90.518 Y109.306 E12.65989
G1 X90.208 Y109.069 E12.67287
G1 X89.941 Y108.833 E12.68472
G1 X89.578 Y108.474 E12.7017
G1 X89.289 Y108.112 E12.71711
G1 X89.022 Y107.729 E12.73263
G1 X88.776 Y107.298 E12.74914
G1 X88.555 Y106.788 E12.76763
G1 X88.432 Y106.421 E12.7805
G1 X88.34 Y106.083 E12.79215
G1 X88.27 Y105.707 E12.80487
G1 X88.228 Y105.404 E12.81505
G1 X88.201 Y104.914 E12.83137
G1 X88.201 Y89.778 E13.33479
G1 X88.236 Y89.148 E13.35578
G1 X88.312 Y88.73 E13.36991
G1 X88.377 Y88.458 E13.37921
G1 X88.532 Y87.966 E13.39637
G1 X88.748 Y87.461 E13.41464
G1 X89.092 Y86.85 E13.43796
G1 X89.466 Y86.349 E13.45875
G1 X89.788 Y86.008 E13.47435
G1 X90.236 Y85.607 E13.49435
G1 X90.528 Y85.384 E13.50657
G1 X90.749 Y85.239 E13.51536
G1 X91.098 Y85.041 E13.52871
G1 X91.576 Y84.806 E13.54642
G1 X91.975 Y84.676 E13.56038
G1 X92.43 Y84.547 E13.57611
G1 X92.867 Y84.466 E13.59089
G1 X93.146 Y84.432 E13.60024
G1 X93.493 Y84.415 E13.6118
G1 X98.576 Y84.415 E13.78086
G1 F1023.5 X99.051 Y84.483 E13.79957
G1 F895.5 X99.42 Y84.48 E13.81602
G1 F1027.8 X99.814 Y84.414 E13.83153
G1 F1200 X108.714 Y84.413 E14.12754
G1 X109.097 Y84.432 E14.1403
G1 X109.609 Y84.502 E14.15749
G1 X109.943 Y84.575 E14.16886
G1 X110.482 Y84.726 E14.18748
G1 X110.837 Y84.875 E14.20028
G1 X111.193 Y85.049 E14.21346
G1 X111.583 Y85.277 E14.22848
G1 X111.845 Y85.461 E14.23913
G1 X112.134 Y85.685 E14.25129
G1 X112.499 Y86.023 E14.26784
G1 X112.741 Y86.28 E14.27958
G1 X112.991 Y86.588 E14.29278
G1 X113.242 Y86.959 E14.30767
G1 X113.397 Y87.222 E14.31783
G1 X113.528 Y87.468 E14.3271
G1 X113.643 Y87.726 E14.33649
G1 X113.778 Y88.07 E14.34878
G1 X113.939 Y88.6 E14.36721
G1 X114.037 Y89.213 E14.38785
G1 X114.076 Y89.641 E14.40215
G1 X114.076 Y105.07 E14.91532
G1 X114.037 Y105.494 E14.92948
G1 X113.932 Y106.138 E14.95118
G1 X113.753 Y106.722 E14.9715
G1 X113.74 Y106.729 E14.97199
G1 X113.647 Y106.971 E14.98061
G1 X113.532 Y107.228 E14.98998
G1 X113.385 Y107.505 E15.00041
G1 X113.207 Y107.799 E15.01184
G1 X113.038 Y108.045 E15.02177
G1 X112.728 Y108.436 E15.03836
G1 X112.494 Y108.682 E15.04965
