;FLAVOR:Marlin
;TIME:432
;Filament used: 0.256299m
;Layer height: 0.2
;MINX:104
;MINY:104
;MINZ:0.2
;MAXX:131
;MAXY:131
;MAXZ:1
;TARGET_MACHINE.NAME:Creality Ender-3
;Generated with Cura_SteamEngine 5.7.1
M140 S60
M105
M190 S60
M104 S200
M105
M109 S200
M82 ;absolute extrusion mode
; Ender 3 Custom Start G-code
G92 E0 ; Reset Extruder
G28 ; Home all axes
G1 Z2.0 F3000 ; Move Z Axis up little to prevent scratching of Heat Bed
G1 X0.1 Y20 Z0.3 F5000.0 ; Move to start position
G1 X0.1 Y200.0 Z0.3 F1500.0 E15 ; Draw the first line
G1 X0.4 Y200.0 Z0.3 F5000.0 ; Move to side a little
G1 X0.4 Y20 Z0.3 F1500.0 E30 ; Draw the second line
G92 E0 ; Reset Extruder
G1 Z2.0 F3000 ; Move Z Axis up little to prevent scratching of Heat Bed
G1 X5 Y20 Z0.3 F5000.0 ; Move over to prevent blob squish
G92 E0
G92 E0
G1 F600 E-2
;LAYER_COUNT:5
;LAYER:0
M107
;MESH:cardtech_logo.stl
G0 F6000 X109.789 Y130.996 Z0.2
;TYPE:WALL-OUTER
G1 F600 E0
G1 F1200 X109.495 Y130.977 E0.0196
G1 X108.951 Y130.905 E0.0561
G1 X108.629 Y130.838 E0.07798
G1 X108.053 Y130.684 E0.11764
G1 X107.561 Y130.482 E0.15302
G1 X107.096 Y130.254 E0.18747
G1 X106.549 Y129.911 E0.23042
G1 X106.217 Y129.657 E0.25822
G1 X105.898 Y129.379 E0.28637
G1 X105.608 Y129.09 E0.31361
G1 X105.39 Y128.842 E0.33557
G1 X105.083 Y128.436 E0.36943
G1 X104.904 Y128.168 E0.39087
G1 X104.695 Y127.809 E0.4185
G1 X104.514 Y127.429 E0.4465
G1 X104.399 Y127.152 E0.46645
G1 X104.224 Y126.626 E0.50333
G1 X104.15 Y126.342 E0.52285
G1 X104.091 Y126.046 E0.54293
G1 X104.019 Y125.507 E0.5791
G1 X104 Y125.11 E0.60554
G1 X104 Y109.894 E1.61771
G1 X104.019 Y109.484 E1.64501
G1 X104.056 Y109.158 E1.66684
G1 X104.128 Y108.753 E1.6942
G1 X104.229 Y108.361 E1.72113
G1 X104.396 Y107.852 E1.75676
G1 X104.521 Y107.55 E1.7785
G1 X104.701 Y107.185 E1.80558
G1 X104.913 Y106.818 E1.83377
G1 X105.095 Y106.54 E1.85587
G1 X105.338 Y106.223 E1.88244
G1 X105.688 Y105.827 E1.9176
G1 X105.905 Y105.61 E1.93801
G1 X106.229 Y105.33 E1.9665
G1 X106.649 Y105.024 E2.00107
G1 X107.099 Y104.743 E2.03636
G1 X107.562 Y104.517 E2.07063
G1 X107.977 Y104.343 E2.10056
G1 X108.656 Y104.15 E2.14752
G1 X109.155 Y104.056 E2.1813
G1 X109.465 Y104.023 E2.20203
G1 X109.796 Y104.004 E2.22409
G1 X125.101 Y104 E3.24218
G1 X125.528 Y104.023 E3.27063
G1 X125.843 Y104.057 E3.2917
G1 X126.337 Y104.147 E3.3251
G1 X126.95 Y104.321 E3.36749
G1 X126.957 Y104.316 E3.36806
G1 X127.433 Y104.516 E3.40241
G1 X127.929 Y104.763 E3.43927
G1 X128.438 Y105.077 E3.47905
G1 X128.855 Y105.404 E3.5143
G1 X129.084 Y105.606 E3.53462
G1 X129.321 Y105.836 E3.55658
G1 X129.669 Y106.233 E3.5917
G1 X129.909 Y106.551 E3.6182
G1 X130.093 Y106.83 E3.64044
G1 X130.24 Y107.076 E3.6595
G1 X130.479 Y107.561 E3.69547
G1 X130.601 Y107.857 E3.71676
G1 X130.767 Y108.346 E3.75111
G1 X130.841 Y108.641 E3.77135
G1 X130.905 Y108.956 E3.79273
G1 X130.977 Y109.479 E3.82785
G1 X130.996 Y109.796 E3.84897
G1 X130.996 Y125.211 E4.87438
G1 X130.977 Y125.513 E4.89451
G1 X130.94 Y125.848 E4.91693
G1 X130.846 Y126.343 E4.95044
G1 X130.653 Y127.019 E4.99721
G1 X130.48 Y127.433 E5.02706
G1 X130.232 Y127.928 E5.06389
G1 X130.084 Y128.179 E5.08327
G1 X129.85 Y128.53 E5.11133
G1 X129.662 Y128.774 E5.13182
G1 X129.379 Y129.098 E5.16044
G1 X129.09 Y129.388 E5.18767
G1 X128.844 Y129.604 E5.20945
G1 X128.357 Y129.971 E5.25001
G1 X127.901 Y130.253 E5.28568
G1 X127.434 Y130.483 E5.32031
G1 X127.022 Y130.654 E5.34998
G1 X126.569 Y130.789 E5.38142
G1 X126.246 Y130.868 E5.40354
G1 X125.808 Y130.944 E5.43311
G1 X125.198 Y130.996 E5.47384
G1 X109.789 Y130.996 E6.49885
G1 F600 E4.49885
G0 F6000 X109.789 Y130.696
G0 X124.9 Y130.596
G0 X124.929 Y129.589
G0 X124.828 Y129.233
G1 F600 E6.49885
G1 F1200 X125.175 Y129.123 E6.52306
G1 X125.429 Y128.887 E6.54613
G1 X125.563 Y128.51 E6.57274
G1 X125.644 Y127.823 E6.61876
G1 X125.648 Y126.482 E6.70796
G1 X125.556 Y124.695 E6.82699
G1 X125.394 Y123.251 E6.92365
G1 X125.235 Y122.445 E6.9783
G1 X125.067 Y122.114 E7.00299
G1 X124.701 Y121.7 E7.03975
G1 X124.069 Y121.156 E7.09522
G1 X122.836 Y120.256 E7.19676
G1 X120.942 Y119.028 E7.34692
G1 X120.084 Y118.516 E7.41338
G1 F1316.9 X119.707 Y118.375 E7.43778
G1 F1635.4 X119.329 Y118.234 E7.45747
G1 F1987.6 X118.595 Y117.835 E7.49102
G1 F2243 X117.32 Y117.164 E7.5423
G1 F2324.5 X116.86 Y116.908 E7.56038
G1 F2201.8 X116.369 Y116.665 E7.58024
G1 F1995.8 X116.01 Y116.475 E7.59648
G1 F1624.4 X115.438 Y116.267 E7.62639
G1 F1387.3 X115.268 Y116.447 E7.64064
G1 F1422.2 X115.049 Y116.859 E7.66683
G1 F1335.2 X114.884 Y117.372 E7.69904
G1 F1200 X114.824 Y118.6 E7.78083
G1 X114.844 Y120.138 E7.88314
G1 X114.949 Y121.441 E7.9701
G1 X115.098 Y122.298 E8.02796
G1 X115.284 Y122.874 E8.06823
G1 X115.506 Y123.222 E8.09569
G1 X116 Y123.691 E8.141
G1 X117.213 Y124.619 E8.24259
G1 X119.305 Y126.058 E8.4115
G1 X121.843 Y127.689 E8.61218
G1 X123.663 Y128.764 E8.75279
G1 X124.433 Y129.143 E8.80988
G1 X124.828 Y129.233 E8.83683
G1 F600 E6.83683
G0 F6000 X124.9 Y129.522
G0 X125.284 Y129.362
G0 X125.641 Y129.015
G0 X125.801 Y128.57
G0 X125.883 Y127.847
G0 X125.889 Y126.457
G0 X125.794 Y124.675
G0 X125.632 Y123.203
G0 X125.461 Y122.37
G0 X125.271 Y121.982
G0 X124.891 Y121.549
G0 X124.209 Y120.96
G0 X123.854 Y120.702
G0 X120.391 Y118.337
G0 X120.355 Y118.038
G1 F600 E8.83683
G1 F1200 X120.573 Y117.94 E8.85273
G1 X120.794 Y117.738 E8.87264
G1 X120.922 Y117.353 E8.89963
G1 X121 Y116.659 E8.94609
G1 X121.024 Y115.018 E9.05526
G1 X120.952 Y112.456 E9.22575
G1 X120.812 Y110.242 E9.37332
G1 X120.691 Y109.327 E9.43472
G1 X120.556 Y108.973 E9.45992
G1 X120.208 Y108.575 E9.49509
G1 X119.668 Y108.115 E9.54228
G1 X118.528 Y107.304 E9.63534
G1 X117.056 Y106.384 E9.75081
G1 X116.073 Y105.857 E9.825
G1 X115.601 Y105.771 E9.85692
G1 X115.3 Y105.913 E9.87906
G1 X115.152 Y106.062 E9.89303
G1 X115.023 Y106.331 E9.91287
G1 X114.913 Y106.907 E9.95188
G1 X114.777 Y108.403 E10.0518
G1 X114.741 Y109.296 E10.11126
G1 F1268.2 X114.758 Y109.937 E10.15162
G1 F1507.1 X114.901 Y110.633 E10.18925
G1 F1514.2 X114.747 Y111.487 E10.235
G1 F1608 X114.586 Y110.933 E10.26364
G1 F2152.5 X114.494 Y110.743 E10.27147
G1 F2055.7 X114.452 Y110.432 E10.28365
G1 F1543.4 X114.326 Y110.142 E10.30001
G1 F1268.2 X113.84 Y109.724 E10.34036
G1 F1200 X112.247 Y108.735 E10.46508
G1 X110.585 Y107.799 E10.59197
G1 X110.25 Y107.679 E10.61564
G1 X109.916 Y107.746 E10.6383
G1 X109.711 Y107.9 E10.65535
G1 X109.607 Y108.034 E10.66664
G1 X109.505 Y108.347 E10.68854
G1 X109.409 Y109.387 E10.75801
G1 X109.348 Y111.307 E10.88579
G1 X109.38 Y112.817 E10.98626
G1 X109.469 Y113.69 E11.04464
G1 X109.606 Y114.164 E11.07746
G1 X109.873 Y114.545 E11.1084
G1 X110.345 Y114.979 E11.15106
G1 X111.162 Y115.569 E11.21809
G1 X112.247 Y116.209 E11.30189
G1 X113.162 Y116.649 E11.36943
G1 X113.777 Y116.862 E11.41272
G1 X114.201 Y116.875 E11.44094
G1 F1306.1 X114.472 Y116.691 E11.46096
G1 F1479.2 X114.669 Y116.304 E11.48439
G1 F1311.5 X114.827 Y115.838 E11.51434
G1 F1147 X114.868 Y114.176 E11.63005
G1 X114.919 Y114.479 E11.65143
G1 X115.096 Y115.007 E11.69019
G1 X115.368 Y115.431 E11.72525
G1 X115.537 Y115.619 E11.74284
G1 F1352.1 X115.934 Y115.848 E11.7699
G1 F1755 X116.223 Y116.024 E11.78529
G1 F1995.8 X116.601 Y116.28 E11.80355
G1 F2232.6 X117.49 Y116.794 E11.84026
G1 F2285.7 X118.549 Y117.327 E11.88167
G1 F2021.1 X119.552 Y117.773 E11.92502
G1 F1821.6 X119.576 Y117.792 E11.92636
G1 F1594.7 X120.157 Y118.061 E11.95841
G1 F1307.9 X120.355 Y118.038 E11.97058
G1 F600 E9.97058
G0 F6000 X120.391 Y118.337
G0 X122.957 Y120.051
G0 X124.209 Y120.96
G0 X124.891 Y121.549
G0 X125.271 Y121.982
G0 X125.461 Y122.37
G0 X125.632 Y123.203
G0 X125.794 Y124.675
G0 X125.889 Y126.457
G0 X125.883 Y127.847
G0 X125.801 Y128.57
G0 X125.641 Y129.015
G0 X125.284 Y129.362
G0 X124.825 Y129.478
G0 X124.355 Y129.371
G0 X123.537 Y128.968
G0 X121.724 Y127.896
G0 X119.183 Y126.267
G0 X117.08 Y124.818
G0 X115.869 Y123.891
G0 X115.319 Y123.374
G0 X115.066 Y122.978
G0 X114.87 Y122.386
G0 X114.713 Y121.488
G0 X114.607 Y120.161
G0 X114.586 Y118.602
G0 X114.648 Y117.332
G0 X114.755 Y116.699
G0 X114.95 Y116.416
G0 X114.831 Y113.696
G1 F600 E11.97058
G1 F1355.9 X114.774 Y112.404 E12.04671
G1 F1426.4 X114.766 Y111.857 E12.07733
G1 F1387.3 X114.747 Y111.487 E12.09865
G1 F600 E10.09865
G0 F6000 X114.473 Y109.89
G0 X114.678 Y106.856
G0 X114.812 Y106.182
G0 X115.033 Y105.8
G0 X115.513 Y105.514
G0 X116.157 Y105.63
G0 X117.169 Y106.174
G0 X118.667 Y107.11
G0 X119.799 Y107.914
G0 X120.403 Y108.43
G0 X120.762 Y108.853
G0 X120.923 Y109.25
G0 X121.05 Y110.204
G0 X121.193 Y112.449
G0 X121.265 Y115.016
G0 X121.238 Y116.678
G0 X121.153 Y117.459
G0 X120.984 Y117.898
G0 X120.581 Y118.251
G0 X120.095 Y118.312
G0 X121.057 Y118.817
G0 X122.957 Y120.051
G0 X124.209 Y120.96
G0 X124.891 Y121.549
G0 X125.271 Y121.982
G0 X125.461 Y122.37
G0 X125.632 Y123.203
G0 X125.794 Y124.675
G0 X125.889 Y126.457
G0 X125.883 Y127.847
G0 X125.801 Y128.57
G0 X125.641 Y129.015
G0 X125.284 Y129.362
G0 X124.825 Y129.478
G0 X124.386 Y129.369
G0 X124.368 Y130.596
G0 X125.092 Y130.388
;TYPE:SKIN
G1 F600 E12.09865
G1 F1566.1 X124.49 Y130.381 E12.12933
G1 F1450.2 X123.951 Y130.31 E12.15926
G1 F1253.3 X123.155 Y130.276 E12.21
G1 F1200 X109.822 Y130.276 E13.09692
G1 X109.561 Y130.257 E13.11433
G1 X109.075 Y130.193 E13.14693
G1 X108.785 Y130.134 E13.16662
G1 X108.293 Y130 E13.20054
G1 X107.845 Y129.818 E13.23271
G1 X107.456 Y129.626 E13.26156
G1 X106.945 Y129.306 E13.30167
G1 X106.662 Y129.09 E13.32535
G1 X106.398 Y128.859 E13.34869
G1 X106.124 Y128.586 E13.37442
G1 X105.939 Y128.375 E13.39308
G1 X105.663 Y128.008 E13.42363
G1 X105.508 Y127.776 E13.44219
G1 X105.338 Y127.483 E13.46472
G1 X105.17 Y127.136 E13.49037
G1 X105.071 Y126.899 E13.50745
G1 X104.913 Y126.424 E13.54075
G1 X104.803 Y125.934 E13.57416
G1 X104.735 Y125.428 E13.60812
G1 X104.72 Y125.099 E13.63003
G1 X104.72 Y109.916 E14.64001
G1 X104.736 Y109.539 E14.66511
G1 X104.769 Y109.25 E14.68446
G1 X104.828 Y108.918 E14.70689
G1 X104.917 Y108.573 E14.73059
G1 X105.116 Y107.965 E14.77314
G1 X105.329 Y107.534 E14.80512
G1 X105.52 Y107.204 E14.83049
G1 X105.691 Y106.948 E14.85097
G1 X105.895 Y106.677 E14.87353
G1 X106.204 Y106.326 E14.90464
G1 X106.393 Y106.138 E14.92237
G1 X106.685 Y105.886 E14.94803
G1 X107.04 Y105.628 E14.97722
G1 X107.46 Y105.366 E15.01015
G1 X107.814 Y105.19 E15.03645
G1 X108.208 Y105.023 E15.06491
G1 X108.828 Y104.85 E15.10773
G1 X109.261 Y104.768 E15.13705
G1 X109.513 Y104.739 E15.15392
G1 X109.849 Y104.723 E15.1763
G1 F1209.1 X114.666 Y104.717 E15.49432
G1 F1403.5 X115.408 Y104.612 E15.53694
G1 F1672.5 X115.679 Y104.606 E15.54988
G1 F1618.9 X116.287 Y104.631 E15.57988
G1 F1500 X116.49 Y104.653 E15.59075
G1 F1311.5 X117.677 Y104.721 E15.66312
G1 F1200 X125.07 Y104.721 E16.1549
G1 X125.477 Y104.74 E16.182
G1 X125.745 Y104.769 E16.19994
G1 X126.159 Y104.846 E16.22795
G1 X126.738 Y105.011 E16.268
G1 X127.131 Y105.17 E16.2962
G1 X127.582 Y105.395 E16.32972
G1 X128.018 Y105.661 E16.3637
G1 X128.399 Y105.963 E16.39604
G1 X128.588 Y106.13 E16.41282
G1 X128.805 Y106.34 E16.4329
G1 X129.116 Y106.696 E16.46435
G1 X129.312 Y106.959 E16.48617
G1 X129.608 Y107.425 E16.52289
G1 X129.827 Y107.865 E16.55558
G1 X129.921 Y108.097 E16.57224
G1 X130.071 Y108.533 E16.60291
G1 X130.193 Y109.084 E16.64045
G1 X130.257 Y109.537 E16.67088
G1 X130.276 Y109.825 E16.69008
G1 X130.276 Y125.178 E17.71137
G1 X130.227 Y125.741 E17.74896
G1 X130.146 Y126.159 E17.77728
G1 X129.969 Y126.784 E17.82049
G1 X129.828 Y127.125 E17.84504
G1 X129.546 Y127.683 E17.88663
G1 X129.263 Y128.106 E17.92048
G1 X129.102 Y128.314 E17.93798
G1 X128.85 Y128.604 E17.96353
G1 X128.597 Y128.861 E17.98752
G1 X128.382 Y129.049 E18.00652
G1 X127.949 Y129.377 E18.04266
G1 X127.554 Y129.621 E18.07354
G1 X127.128 Y129.831 E18.10513
G1 X126.786 Y129.97 E18.12969
G1 X126.375 Y130.094 E18.15825
G1 F1215.2 X125.804 Y130.224 E18.19672
G1 F1302.6 X125.49 Y130.307 E18.21662
G1 F1443.6 X125.092 Y130.388 E18.23908
G0 F6000 X125.529 Y129.747
G1 F1292.1 X125.926 Y129.399 E18.27169
G1 F1200 X126.109 Y129.132 E18.29323
G1 X126.267 Y128.662 E18.32621
G1 X126.364 Y127.848 E18.38074
G1 X126.368 Y126.443 E18.4742
G1 X126.272 Y124.65 E18.59364
G1 X126.106 Y123.151 E18.69397
G1 X125.919 Y122.206 E18.75805
G1 X125.671 Y121.706 E18.79518
G1 X125.253 Y121.231 E18.83726
G1 X124.543 Y120.61 E18.90001
G1 X123.252 Y119.668 E19.00632
G1 X121.197 Y118.339 E19.16911
G1 X121.308 Y118.232 E19.17937
G1 X121.489 Y117.933 E19.20262
G1 X121.634 Y117.466 E19.23515
G1 X121.716 Y116.692 E19.28692
G1 X121.744 Y115.023 E19.39796
G1 X121.672 Y112.428 E19.57065
G1 X121.528 Y110.182 E19.72036
G1 X121.395 Y109.166 E19.78852
G1 X121.187 Y108.602 E19.82851
G1 X120.759 Y108.106 E19.87209
G1 X120.049 Y107.502 E19.93409
G1 X118.953 Y106.72 E20.02366
G1 X117.415 Y105.76 E20.14426
G1 F1311.5 X116.338 Y105.256 E20.21663
G1 F1553.4 X115.73 Y105.178 E20.24813
G1 F1624.4 X115.401 Y105.187 E20.26431
G1 F1467.9 X114.931 Y105.292 E20.2905
G1 F1281.7 X114.48 Y105.726 E20.32948
G1 F1200 X114.331 Y106.135 E20.35843
G1 X114.205 Y106.766 E20.40124
G1 X114.053 Y108.382 E20.50921
G1 X114.028 Y108.988 E20.54955
G1 X112.607 Y108.111 E20.66063
G1 X110.941 Y107.171 E20.78788
G1 X110.526 Y107.013 E20.81742
G1 X110.199 Y106.968 E20.83937
G1 X109.774 Y107.027 E20.86792
G1 X109.421 Y107.199 E20.89404
G1 X109.13 Y107.46 E20.92004
G1 X108.956 Y107.719 E20.94079
G1 X108.798 Y108.157 E20.97177
G1 X108.689 Y109.331 E21.0502
G1 X108.628 Y111.291 E21.18064
G1 X108.66 Y112.829 E21.28297
G1 X108.753 Y113.784 E21.3468
G1 X108.939 Y114.473 E21.39427
G1 X109.328 Y115.021 E21.43898
G1 X109.881 Y115.529 E21.48893
G1 X110.801 Y116.193 E21.5644
G1 X111.911 Y116.847 E21.6501
G1 X112.851 Y117.297 E21.71943
G1 X113.637 Y117.579 E21.77497
G1 X114.151 Y117.586 E21.80917
G1 X114.104 Y118.572 E21.87483
G1 X114.124 Y120.175 E21.98147
G1 X114.233 Y121.533 E22.0721
G1 X114.397 Y122.477 E22.13583
G1 X114.626 Y123.18 E22.18502
G1 X114.945 Y123.673 E22.22408
G1 X115.568 Y124.266 E22.28129
G1 X116.769 Y125.186 E22.38193
G1 X118.893 Y126.646 E22.55338
G1 X121.427 Y128.277 E22.75384
G1 X123.353 Y129.416 E22.90268
G1 F1253.3 X124.083 Y129.733 E22.95337
G1 F1450.2 X124.569 Y129.801 E22.98039
G1 F1621.6 X125.022 Y129.814 E23.00269
G1 F1502.3 X125.529 Y129.747 E23.02987
G1 F600 E21.02987
G0 F6000 X125.292 Y129.42
G0 X124.825 Y129.478
G0 X124.355 Y129.371
G0 X123.892 Y129.142
G0 X119.089 Y126.372
G0 X119.089 Y130.596
G0 X107.905 Y129.401
G1 F600 E23.02987
G1 F1200 X105.59 Y127.086 E23.24765
G0 F6000 X104.85 Y127.437
G0 X104.337 Y125.622
G0 X105.15 Y125.514
G1 F1200 X109.478 Y129.842 E23.6548
G0 F6000 X109.369 Y130.657
G0 X110.642 Y130.696
G0 X110.642 Y129.876
G1 F1200 X105.12 Y124.353 E24.17432
G0 F6000 X104.3 Y124.353
G0 X104.3 Y123.222
G0 X105.12 Y123.222
G1 F1200 X111.774 Y129.876 E24.80029
G0 F6000 X111.774 Y130.696
G0 X112.905 Y130.696
G0 X112.905 Y129.876
G1 F1200 X105.12 Y122.09 E25.5327
G0 F6000 X104.3 Y122.09
G0 X104.3 Y120.959
G0 X105.12 Y120.959
G1 F1200 X114.037 Y129.876 E26.37156
G0 F6000 X114.037 Y130.696
G0 X115.168 Y130.696
G0 X115.168 Y129.876
G1 F1200 X105.12 Y119.828 E27.31681
G0 F6000 X104.3 Y119.828
G0 X104.3 Y118.696
G0 X105.12 Y118.696
G1 F1200 X116.299 Y129.876 E28.36851
G0 F6000 X116.299 Y130.696
G0 X117.431 Y130.696
G0 X117.431 Y129.876
G1 F1200 X105.12 Y117.565 E29.52665
G0 F6000 X104.3 Y117.565
G0 X104.3 Y116.434
G0 X105.12 Y116.434
G1 F1200 X118.562 Y129.876 E30.7912
G0 F6000 X118.562 Y130.696
G0 X119.693 Y130.696
G0 X119.693 Y129.876
G1 F1200 X105.12 Y115.302 E32.16218
G0 F6000 X104.3 Y115.302
G0 X104.3 Y114.171
G0 X105.12 Y114.171
